packages/core/assets/Icons/fullscreen.svg

<svg viewBox="0 0 20 20" fill="none" xmlns="http://www.w3.org/2000/svg">
<path d="M4.16667 15.8333H5.83333C6.06944 15.8333 6.26736 15.9132 6.42708 16.0729C6.58681 16.2326 6.66667 16.4306 6.66667 16.6667C6.66667 16.9028 6.58681 17.1007 6.42708 17.2604C6.26736 17.4201 6.06944 17.5 5.83333 17.5H3.33333C3.09722 17.5 2.89931 17.4201 2.73958 17.2604C2.57986 17.1007 2.5 16.9028 2.5 16.6667V14.1667C2.5 13.9306 2.57986 13.7326 2.73958 13.5729C2.89931 13.4132 3.09722 13.3333 3.33333 13.3333C3.56944 13.3333 3.76736 13.4132 3.92708 13.5729C4.08681 13.7326 4.16667 13.9306 4.16667 14.1667V15.8333ZM15.8333 15.8333V14.1667C15.8333 13.9306 15.9132 13.7326 16.0729 13.5729C16.2326 13.4132 16.4306 13.3333 16.6667 13.3333C16.9028 13.3333 17.1007 13.4132 17.2604 13.5729C17.4201 13.7326 17.5 13.9306 17.5 14.1667V16.6667C17.5 16.9028 17.4201 17.1007 17.2604 17.2604C17.1007 17.4201 16.9028 17.5 16.6667 17.5H14.1667C13.9306 17.5 13.7326 17.4201 13.5729 17.2604C13.4132 17.1007 13.3333 16.9028 13.3333 16.6667C13.3333 16.4306 13.4132 16.2326 13.5729 16.0729C13.7326 15.9132 13.9306 15.8333 14.1667 15.8333H15.8333ZM4.16667 4.16667V5.83333C4.16667 6.06944 4.08681 6.26736 3.92708 6.42708C3.76736 6.58681 3.56944 6.66667 3.33333 6.66667C3.09722 6.66667 2.89931 6.58681 2.73958 6.42708C2.57986 6.26736 2.5 6.06944 2.5 5.83333V3.33333C2.5 3.09722 2.57986 2.89931 2.73958 2.73958C2.89931 2.57986 3.09722 2.5 3.33333 2.5H5.83333C6.06944 2.5 6.26736 2.57986 6.42708 2.73958C6.58681 2.89931 6.66667 3.09722 6.66667 3.33333C6.66667 3.56944 6.58681 3.76736 6.42708 3.92708C6.26736 4.08681 6.06944 4.16667 5.83333 4.16667H4.16667ZM15.8333 4.16667H14.1667C13.9306 4.16667 13.7326 4.08681 13.5729 3.92708C13.4132 3.76736 13.3333 3.56944 13.3333 3.33333C13.3333 3.09722 13.4132 2.89931 13.5729 2.73958C13.7326 2.57986 13.9306 2.5 14.1667 2.5H16.6667C16.9028 2.5 17.1007 2.57986 17.2604 2.73958C17.4201 2.89931 17.5 3.09722 17.5 3.33333V5.83333C17.5 6.06944 17.4201 6.26736 17.2604 6.42708C17.1007 6.58681 16.9028 6.66667 16.6667 6.66667C16.4306 6.66667 16.2326 6.58681 16.0729 6.42708C15.9132 6.26736 15.8333 6.06944 15.8333 5.83333V4.16667Z" fill="currentColor"/>
</svg>

<svg xmlns="http://www.w3.org/2000/svg" width="20" height="20" fill="none" viewBox="0 0 20 20">
  <path fill="#201F1F" d="M4.167 15.833h1.666c.236 0 .434.08.594.24.16.16.24.358.24.594s-.08.434-.24.593a.806.806 0 0 1-.594.24h-2.5a.806.806 0 0 1-.593-.24.806.806 0 0 1-.24-.593v-2.5c0-.236.08-.434.24-.594.16-.16.357-.24.593-.24s.434.08.594.24c.16.16.24.358.24.594v1.666Zm11.666 0v-1.666c0-.236.08-.434.24-.594.16-.16.358-.24.594-.24s.434.08.593.24c.16.16.24.358.24.594v2.5c0 .236-.08.434-.24.593a.806.806 0 0 1-.593.24h-2.5a.807.807 0 0 1-.594-.24.806.806 0 0 1-.24-.593c0-.236.08-.434.24-.594.16-.16.358-.24.594-.24h1.666ZM4.167 4.167v1.666c0 .236-.08.434-.24.594a.806.806 0 0 1-.594.24.806.806 0 0 1-.593-.24.806.806 0 0 1-.24-.594v-2.5c0-.236.08-.434.24-.593.16-.16.357-.24.593-.24h2.5c.236 0 .434.08.594.24.16.16.24.357.24.593s-.08.434-.24.594a.806.806 0 0 1-.594.24H4.167Zm11.666 0h-1.666a.806.806 0 0 1-.594-.24.806.806 0 0 1-.24-.594c0-.236.08-.434.24-.593.16-.16.358-.24.594-.24h2.5c.236 0 .434.08.593.24.16.16.24.357.24.593v2.5c0 .236-.08.434-.24.594a.806.806 0 0 1-.593.24.806.806 0 0 1-.594-.24.806.806 0 0 1-.24-.594V4.167Z"/>
</svg>
